assets/img/dl/linux.svg

<svg width="224" height="72" viewBox="0 0 224 72" fill="none" xmlns="http://www.w3.org/2000/svg">
  <rect width="224" height="72" rx="8" fill="#3D3D46"/>
  <path d="M74.162 26V16.844H76.612C78.012 16.844 79.104 17.222 79.888 17.978C80.672 18.734 81.064 19.868 81.064 21.38C81.064 22.136 80.9613 22.8033 80.756 23.382C80.56 23.9607 80.2707 24.446 79.888 24.838C79.5147 25.2207 79.0573 25.51 78.516 25.706C77.984 25.902 77.3773 26 76.696 26H74.162ZM75.786 24.684H76.5C77.4333 24.684 78.1473 24.418 78.642 23.886C79.146 23.3447 79.398 22.5093 79.398 21.38C79.398 20.26 79.146 19.4433 78.642 18.93C78.138 18.4167 77.424 18.16 76.5 18.16H75.786V24.684ZM86.468 26.168C85.8707 26.168 85.3247 26.0607 84.83 25.846C84.3353 25.622 83.9107 25.3047 83.556 24.894C83.2013 24.474 82.926 23.97 82.73 23.382C82.534 22.794 82.436 22.1267 82.436 21.38C82.436 20.6427 82.534 19.9847 82.73 19.406C82.926 18.818 83.2013 18.3233 83.556 17.922C83.9107 17.5207 84.3353 17.2127 84.83 16.998C85.3247 16.7833 85.8707 16.676 86.468 16.676C87.0653 16.676 87.6113 16.7833 88.106 16.998C88.6007 17.2127 89.0253 17.5207 89.38 17.922C89.744 18.3233 90.024 18.818 90.22 19.406C90.416 19.9847 90.514 20.6427 90.514 21.38C90.514 22.1267 90.416 22.794 90.22 23.382C90.024 23.97 89.744 24.474 89.38 24.894C89.0253 25.3047 88.6007 25.622 88.106 25.846C87.6113 26.0607 87.0653 26.168 86.468 26.168ZM86.468 24.754C86.832 24.754 87.1587 24.6747 87.448 24.516C87.7373 24.3573 87.9847 24.1333 88.19 23.844C88.3953 23.5453 88.554 23.1907 88.666 22.78C88.778 22.36 88.834 21.8933 88.834 21.38C88.834 20.3533 88.6193 19.5507 88.19 18.972C87.77 18.384 87.196 18.09 86.468 18.09C85.74 18.09 85.1613 18.384 84.732 18.972C84.312 19.5507 84.102 20.3533 84.102 21.38C84.102 21.8933 84.158 22.36 84.27 22.78C84.382 23.1907 84.5407 23.5453 84.746 23.844C84.9513 24.1333 85.1987 24.3573 85.488 24.516C85.7773 24.6747 86.104 24.754 86.468 24.754ZM93.2009 26L91.3809 16.844H93.0469L93.8449 21.464C93.9196 21.9587 93.9942 22.4487 94.0689 22.934C94.1436 23.4193 94.2182 23.9047 94.2929 24.39H94.3489C94.4516 23.9047 94.5496 23.4193 94.6429 22.934C94.7456 22.4393 94.8482 21.9493 94.9509 21.464L96.0709 16.844H97.4849L98.6049 21.464C98.7076 21.94 98.8102 22.4253 98.9129 22.92C99.0156 23.4053 99.1182 23.8953 99.2209 24.39H99.2769C99.3516 23.8953 99.4216 23.4053 99.4869 22.92C99.5616 22.4347 99.6362 21.9493 99.7109 21.464L100.509 16.844H102.063L100.313 26H98.2969L97.1629 21.184C97.0882 20.8293 97.0136 20.4793 96.9389 20.134C96.8736 19.7793 96.8129 19.4247 96.7569 19.07H96.7009C96.6356 19.4247 96.5656 19.7793 96.4909 20.134C96.4256 20.4793 96.3556 20.8293 96.2809 21.184L95.1749 26H93.2009ZM103.488 26V16.844H105.154L108.01 21.996L108.948 23.942H109.004C108.967 23.466 108.92 22.9573 108.864 22.416C108.818 21.8653 108.794 21.3333 108.794 20.82V16.844H110.348V26H108.682L105.826 20.848L104.888 18.902H104.832C104.87 19.3873 104.912 19.896 104.958 20.428C105.014 20.96 105.042 21.4827 105.042 21.996V26H103.488ZM112.676 26V16.844H114.3V24.628H118.108V26H112.676ZM122.822 26.168C122.224 26.168 121.678 26.0607 121.184 25.846C120.689 25.622 120.264 25.3047 119.91 24.894C119.555 24.474 119.28 23.97 119.084 23.382C118.888 22.794 118.79 22.1267 118.79 21.38C118.79 20.6427 118.888 19.9847 119.084 19.406C119.28 18.818 119.555 18.3233 119.91 17.922C120.264 17.5207 120.689 17.2127 121.184 16.998C121.678 16.7833 122.224 16.676 122.822 16.676C123.419 16.676 123.965 16.7833 124.46 16.998C124.954 17.2127 125.379 17.5207 125.734 17.922C126.098 18.3233 126.378 18.818 126.574 19.406C126.77 19.9847 126.868 20.6427 126.868 21.38C126.868 22.1267 126.77 22.794 126.574 23.382C126.378 23.97 126.098 24.474 125.734 24.894C125.379 25.3047 124.954 25.622 124.46 25.846C123.965 26.0607 123.419 26.168 122.822 26.168ZM122.822 24.754C123.186 24.754 123.512 24.6747 123.802 24.516C124.091 24.3573 124.338 24.1333 124.544 23.844C124.749 23.5453 124.908 23.1907 125.02 22.78C125.132 22.36 125.188 21.8933 125.188 21.38C125.188 20.3533 124.973 19.5507 124.544 18.972C124.124 18.384 123.55 18.09 122.822 18.09C122.094 18.09 121.515 18.384 121.086 18.972C120.666 19.5507 120.456 20.3533 120.456 21.38C120.456 21.8933 120.512 22.36 120.624 22.78C120.736 23.1907 120.894 23.5453 121.1 23.844C121.305 24.1333 121.552 24.3573 121.842 24.516C122.131 24.6747 122.458 24.754 122.822 24.754ZM130.438 21.128L130.116 22.248H132.454L132.132 21.128C131.983 20.6427 131.838 20.1433 131.698 19.63C131.568 19.1167 131.437 18.608 131.306 18.104H131.25C131.12 18.6173 130.989 19.1307 130.858 19.644C130.728 20.148 130.588 20.6427 130.438 21.128ZM127.372 26L130.354 16.844H132.258L135.24 26H133.532L132.818 23.522H129.738L129.024 26H127.372ZM136.369 26V16.844H138.819C140.219 16.844 141.311 17.222 142.095 17.978C142.879 18.734 143.271 19.868 143.271 21.38C143.271 22.136 143.168 22.8033 142.963 23.382C142.767 23.9607 142.478 24.446 142.095 24.838C141.722 25.2207 141.264 25.51 140.723 25.706C140.191 25.902 139.584 26 138.903 26H136.369ZM137.993 24.684H138.707C139.64 24.684 140.354 24.418 140.849 23.886C141.353 23.3447 141.605 22.5093 141.605 21.38C141.605 20.26 141.353 19.4433 140.849 18.93C140.345 18.4167 139.631 18.16 138.707 18.16H137.993V24.684ZM147.922 26V16.844H153.452V18.216H149.546V20.806H152.878V22.178H149.546V26H147.922ZM158.478 26.168C157.88 26.168 157.334 26.0607 156.84 25.846C156.345 25.622 155.92 25.3047 155.566 24.894C155.211 24.474 154.936 23.97 154.74 23.382C154.544 22.794 154.446 22.1267 154.446 21.38C154.446 20.6427 154.544 19.9847 154.74 19.406C154.936 18.818 155.211 18.3233 155.566 17.922C155.92 17.5207 156.345 17.2127 156.84 16.998C157.334 16.7833 157.88 16.676 158.478 16.676C159.075 16.676 159.621 16.7833 160.116 16.998C160.61 17.2127 161.035 17.5207 161.39 17.922C161.754 18.3233 162.034 18.818 162.23 19.406C162.426 19.9847 162.524 20.6427 162.524 21.38C162.524 22.1267 162.426 22.794 162.23 23.382C162.034 23.97 161.754 24.474 161.39 24.894C161.035 25.3047 160.61 25.622 160.116 25.846C159.621 26.0607 159.075 26.168 158.478 26.168ZM158.478 24.754C158.842 24.754 159.168 24.6747 159.458 24.516C159.747 24.3573 159.994 24.1333 160.2 23.844C160.405 23.5453 160.564 23.1907 160.676 22.78C160.788 22.36 160.844 21.8933 160.844 21.38C160.844 20.3533 160.629 19.5507 160.2 18.972C159.78 18.384 159.206 18.09 158.478 18.09C157.75 18.09 157.171 18.384 156.742 18.972C156.322 19.5507 156.112 20.3533 156.112 21.38C156.112 21.8933 156.168 22.36 156.28 22.78C156.392 23.1907 156.55 23.5453 156.756 23.844C156.961 24.1333 157.208 24.3573 157.498 24.516C157.787 24.6747 158.114 24.754 158.478 24.754ZM164.355 26V16.844H167.449C167.925 16.844 168.369 16.8907 168.779 16.984C169.19 17.0773 169.545 17.2313 169.843 17.446C170.142 17.6513 170.375 17.9267 170.543 18.272C170.721 18.6173 170.809 19.0467 170.809 19.56C170.809 20.26 170.641 20.8247 170.305 21.254C169.979 21.6833 169.54 21.9913 168.989 22.178L171.173 26H169.353L167.379 22.416H165.979V26H164.355ZM165.979 21.128H167.281C167.907 21.128 168.383 20.9973 168.709 20.736C169.045 20.4747 169.213 20.0827 169.213 19.56C169.213 19.028 169.045 18.6593 168.709 18.454C168.383 18.2487 167.907 18.146 167.281 18.146H165.979V21.128Z" fill="white"/>
  <path d="M75.156 55V36.744H79.272V51.528H86.496V55H75.156ZM89.6482 55V36.744H93.7642V55H89.6482ZM98.0701 55V36.744H102.298L107.058 45.816L108.85 49.848H108.962C108.869 48.8773 108.757 47.7947 108.626 46.6C108.514 45.4053 108.458 44.2667 108.458 43.184V36.744H112.378V55H108.15L103.39 45.9L101.598 41.924H101.486C101.579 42.932 101.682 44.0147 101.794 45.172C101.925 46.3293 101.99 47.4493 101.99 48.532V55H98.0701ZM123.887 55.336C121.516 55.336 119.706 54.636 118.455 53.236C117.204 51.836 116.579 49.6053 116.579 46.544V36.744H120.723V46.964C120.723 48.756 120.994 50.0067 121.535 50.716C122.076 51.4253 122.86 51.78 123.887 51.78C124.914 51.78 125.707 51.4253 126.267 50.716C126.827 50.0067 127.107 48.756 127.107 46.964V36.744H131.083V46.544C131.083 49.6053 130.467 51.836 129.235 53.236C128.022 54.636 126.239 55.336 123.887 55.336ZM133.191 55L138.259 45.62L133.499 36.744H138.091L139.687 40.188C139.892 40.6173 140.097 41.0747 140.303 41.56C140.508 42.0267 140.741 42.5493 141.003 43.128H141.115C141.32 42.5493 141.516 42.0267 141.703 41.56C141.908 41.0747 142.104 40.6173 142.291 40.188L143.747 36.744H148.143L143.411 45.816L148.451 55H143.859L142.039 51.276C141.815 50.7907 141.591 50.3147 141.367 49.848C141.161 49.3627 140.928 48.84 140.667 48.28H140.555C140.349 48.84 140.144 49.3627 139.939 49.848C139.733 50.3147 139.528 50.7907 139.323 51.276L137.615 55H133.191Z" fill="white"/>
  <path d="M35.3706 24.319C34.8897 24.3706 35.0557 24.8161 34.788 24.8258C34.5243 24.8355 34.578 24.2586 35.3706 24.319ZM36.8204 24.3925C37.2884 24.2714 37.2909 24.746 37.5465 24.6596C37.7949 24.5757 37.5425 24.0567 36.8204 24.3925ZM52.9509 55.474C51.5051 56.206 49.6193 57.8322 48.9141 58.5061C48.3956 59.0057 46.223 59.2535 45.016 58.628C43.5855 57.8863 44.3444 56.729 42.1356 56.6742C41.0377 56.6484 39.9701 56.6387 38.9003 56.6516C37.9538 56.6645 37.0081 56.6936 36.0432 56.7444C32.7267 56.7734 32.4022 58.9572 30.2896 58.8773C28.8438 58.8233 27.019 57.6748 23.8854 57.0139C21.6831 56.5522 19.5689 56.4425 19.1161 55.4611C18.664 54.483 19.6739 53.3862 19.7411 52.4113C19.8236 51.1403 18.785 49.4116 19.5527 48.7418C20.1866 48.1872 21.5756 48.594 22.4708 48.0904C23.4229 47.5586 23.8052 47.1155 23.8052 45.9478C24.1554 47.1406 23.7892 48.1291 23.0022 48.6134C22.5341 48.8983 21.6638 49.0492 20.9481 48.9758C20.3815 48.9218 20.0304 49.0144 19.8582 49.2317C19.6386 49.5142 19.7091 50.0081 19.9855 50.6658C20.2637 51.3236 20.5979 51.7408 20.553 52.5455C20.5081 53.3509 19.6289 54.3071 19.7692 54.9843C19.8237 55.2442 20.0777 55.4613 20.6868 55.6347C21.6967 55.9205 23.499 56.1795 25.2775 56.616C27.2546 57.1044 29.2959 58.0244 30.5645 57.8477C34.3577 57.3158 32.1946 53.2193 31.5808 52.2451C28.379 47.1697 26.2617 43.8471 24.5667 45.1659C24.1242 45.5088 24.1074 44.3023 24.1267 43.8375C24.1997 42.1694 25.0412 41.5858 25.5413 40.2873C26.4774 37.8557 27.2074 35.0706 28.6557 33.6308C29.7336 32.2419 31.415 29.9556 31.7372 28.749C31.4663 26.1254 31.383 23.3637 31.3412 20.945C31.3003 18.3722 31.7051 16.1149 34.5903 14.5364C35.2939 14.1514 36.2083 14.0102 37.1773 14.0006C38.9099 13.9812 40.8205 14.4694 42.0411 15.3806C43.987 16.8332 45.2099 19.925 45.0673 22.1485C44.9518 23.8602 45.258 25.6542 45.803 27.4984C46.4553 29.6886 47.4876 31.2284 49.1273 32.9797C51.1036 35.0901 52.6416 39.248 53.0744 41.8814C53.4823 44.3413 52.951 45.8618 52.4149 45.9384C51.6166 46.057 51.1189 48.6104 48.6184 48.4918C47.0228 48.4143 46.8665 47.4653 46.4242 46.6566C45.7132 45.3638 44.9903 45.7681 44.7002 47.1159C44.5504 47.805 44.6593 48.7936 44.8789 49.5628C45.3245 51.1381 45.1715 52.6327 44.9054 54.4445C44.3949 57.922 47.3186 58.5798 49.2909 56.927C51.2368 55.2952 51.6536 55.0353 54.1164 54.1887C57.8301 52.9079 56.5824 51.7756 54.5852 51.0993C52.7948 50.4932 52.7211 47.4466 53.3622 46.872C53.5049 50.1437 55.1959 50.6183 55.9132 51.0646C58.9856 52.9851 54.7524 54.5604 52.9509 55.474ZM44.6809 45.8905C45.0191 45.4862 45.4174 45.441 45.9423 45.4312C46.0224 43.4371 49.1055 43.584 50.1154 44.4184C50.1154 43.9561 49.1465 43.542 48.7586 43.3467C49.4309 41.0951 49.1152 40.1903 48.6696 38.0638C48.3314 36.4409 46.8631 34.257 45.7131 33.5735C46.0033 33.8292 46.5546 34.5742 47.1373 35.6669C48.1407 37.5481 49.1312 40.3283 48.4716 42.6631C48.2176 43.5548 47.6373 43.6671 47.2391 43.7122C45.471 43.8978 46.5105 41.6083 45.7764 38.4544C44.959 34.9486 44.1206 34.6855 43.91 34.4104C42.8969 29.849 41.7701 30.3042 41.4512 28.582C41.1651 27.0582 42.7702 25.7978 40.588 25.3716C39.9228 25.24 38.9708 24.5605 38.5909 24.5121C38.215 24.4604 38.0306 21.9973 39.4098 21.8972C40.7891 21.7947 41.0527 23.4661 40.7819 24.1239C40.39 24.7752 40.8108 25.0189 41.4928 24.8067C42.0506 24.634 41.6908 23.1707 41.8238 22.9538C41.464 20.8587 40.5952 20.5569 39.6904 20.3809C36.2563 20.6464 37.7982 24.4767 37.4504 24.1078C36.9639 23.5881 35.5013 24.0788 35.5085 23.7455C35.5398 21.7923 34.8898 20.6602 33.9945 20.6367C32.9976 20.6077 32.5865 22.0136 32.5262 22.8052C32.4693 23.5655 32.9751 25.1497 33.3445 25.0286C33.5865 24.9479 34.0008 24.4581 33.5577 24.4604C33.3285 24.4636 32.9823 23.9221 32.9462 23.2635C32.9117 22.6066 33.1506 21.9457 33.9977 21.9804C34.9915 22.0192 34.9818 23.9738 34.8736 24.0496C34.5555 24.2715 34.1476 24.7017 34.1035 24.7751C33.7877 25.3078 33.1538 25.4393 32.9214 25.6734C32.479 26.1188 32.3892 26.6224 32.721 26.8153C33.8575 27.4722 33.488 28.2034 35.078 28.2712C36.1222 28.3124 36.9085 28.1074 37.6193 27.8887C38.1732 27.72 39.9515 27.3383 40.3266 26.6806C40.4892 26.4014 40.6936 26.3917 40.8298 26.4716C41.0686 26.6104 41.12 27.0752 40.5052 27.2415C39.626 27.4821 38.738 27.9541 37.9598 28.2681C37.1832 28.5852 36.9348 28.7071 36.2022 28.8427C34.5512 29.1404 33.3323 28.2423 34.4399 29.3204C34.807 29.6797 35.1604 29.9039 36.1101 29.8653C38.1899 29.7821 40.5203 27.2674 40.7503 28.3932C40.7984 28.624 40.0916 28.9379 39.5403 29.2139C37.5904 30.18 36.2175 32.0878 34.9688 31.4276C33.8517 30.8345 32.7401 28.0437 32.7593 29.2939C32.7905 31.2218 30.2355 32.9377 31.4112 35.132C30.6499 35.3409 28.9139 39.0291 28.6647 40.9499C28.5285 42.0377 28.7682 43.4041 28.5093 44.1676C28.1334 45.2709 26.4264 43.116 26.9713 40.4753C27.0692 40.0104 26.9866 39.912 26.8631 40.1363C26.1691 41.3712 26.5505 43.0935 27.0979 44.3024C27.3376 44.8254 27.8978 45.0561 28.312 45.5218C29.2064 46.5289 32.6286 49.0849 33.2489 49.6975C34.0005 50.4415 33.7898 52.1484 32.1917 52.3115C33.0108 53.8674 33.809 54.015 33.797 56.5589C34.7235 56.0577 34.3508 54.9618 33.9629 54.2395C33.6921 53.7457 33.3379 53.5213 33.4148 53.4059C33.4726 53.3188 33.9493 52.9056 34.2363 53.2291C35.0802 54.1815 36.6735 54.3519 38.3869 54.1372C40.0972 53.9185 41.9317 53.3165 42.7796 51.9436C43.1771 51.2987 43.4641 51.0704 43.6483 51.1833C43.8303 51.2987 43.9096 51.7539 43.8903 52.485C43.8687 53.2969 43.5313 54.1402 43.3213 54.8141C43.0847 55.5776 43.012 56.1191 43.7508 56.1482C43.9704 54.7365 44.356 53.3476 44.4673 51.9435C44.5919 50.346 43.4427 47.3722 44.6809 45.8905ZM34.1982 23.2094C34.1413 23.5242 34.1637 23.7203 34.3801 23.7203C34.4154 23.7203 34.453 23.713 34.4666 23.6332C34.5708 23.0077 34.2495 22.5525 34.1187 22.5162C33.8135 22.4395 33.8519 22.8786 34.0105 22.8438C34.1067 22.8243 34.2366 22.9849 34.1982 23.2094ZM39.8434 22.3499C39.5308 22.3789 39.6206 22.5355 39.7761 22.5807C39.9796 22.642 40.1712 22.9906 40.2153 23.37C40.2185 23.4047 40.4765 23.3152 40.4765 23.232C40.4958 22.6251 39.9796 22.3377 39.8434 22.3499Z" fill="white"/>
</svg>

<svg xmlns="http://www.w3.org/2000/svg" width="224" height="72" fill="none"><rect width="224" height="72" rx="8" fill="#3d3d46"/><path d="M74.162 26v-9.156h2.45c1.4 0 2.492.378 3.276 1.134s1.176 1.89 1.176 3.402c0 .756-.103 1.423-.308 2.002-.196.579-.485 1.064-.868 1.456a3.59 3.59 0 0 1-1.372.868c-.532.196-1.139.294-1.82.294h-2.534zm1.624-1.316h.714c.933 0 1.647-.266 2.142-.798.504-.541.756-1.377.756-2.506 0-1.12-.252-1.937-.756-2.45s-1.218-.77-2.142-.77h-.714v6.524zm10.682 1.484c-.597 0-1.143-.107-1.638-.322-.495-.224-.919-.541-1.274-.952-.355-.42-.63-.924-.826-1.512s-.294-1.255-.294-2.002c0-.737.098-1.395.294-1.974.196-.588.471-1.083.826-1.484a3.59 3.59 0 0 1 1.274-.924c.495-.215 1.041-.322 1.638-.322s1.143.107 1.638.322a3.59 3.59 0 0 1 1.274.924c.364.401.644.896.84 1.484.196.579.294 1.237.294 1.974 0 .747-.098 1.414-.294 2.002s-.476 1.092-.84 1.512c-.355.411-.779.728-1.274.952-.495.215-1.041.322-1.638.322zm0-1.414a2 2 0 0 0 .98-.238 2.21 2.21 0 0 0 .742-.672c.205-.299.364-.653.476-1.064.112-.42.168-.887.168-1.4 0-1.027-.215-1.829-.644-2.408a2 2 0 0 0-1.722-.882c-.728 0-1.307.294-1.736.882-.42.579-.63 1.381-.63 2.408 0 .513.056.98.168 1.4.112.411.271.765.476 1.064a2.21 2.21 0 0 0 .742.672 2 2 0 0 0 .98.238zM93.201 26l-1.82-9.156h1.666l.798 4.62.224 1.47.224 1.456h.056l.294-1.456.308-1.47 1.12-4.62h1.414l1.12 4.62.308 1.456.308 1.47h.056l.21-1.47.224-1.456.798-4.62h1.554L100.313 26h-2.016l-1.134-4.816-.224-1.05-.182-1.064h-.056l-.21 1.064-.21 1.05L95.175 26h-1.974zm10.287 0v-9.156h1.666l2.856 5.152.938 1.946h.056l-.14-1.526-.07-1.596v-3.976h1.554V26h-1.666l-2.856-5.152-.938-1.946h-.056l.126 1.526a14.98 14.98 0 0 1 .084 1.568V26h-1.554zm9.188 0v-9.156h1.624v7.784h3.808V26h-5.432zm10.146.168c-.598 0-1.144-.107-1.638-.322-.495-.224-.92-.541-1.274-.952-.355-.42-.63-.924-.826-1.512s-.294-1.255-.294-2.002c0-.737.098-1.395.294-1.974.196-.588.471-1.083.826-1.484a3.59 3.59 0 0 1 1.274-.924c.495-.215 1.04-.322 1.638-.322s1.143.107 1.638.322a3.59 3.59 0 0 1 1.274.924c.364.401.644.896.84 1.484.196.579.294 1.237.294 1.974 0 .747-.098 1.414-.294 2.002s-.476 1.092-.84 1.512a3.66 3.66 0 0 1-1.274.952c-.495.215-1.041.322-1.638.322zm0-1.414c.364 0 .69-.079.98-.238s.536-.383.742-.672c.205-.299.364-.653.476-1.064.112-.42.168-.887.168-1.4 0-1.027-.215-1.829-.644-2.408a2 2 0 0 0-1.722-.882c-.728 0-1.307.294-1.736.882-.42.579-.63 1.381-.63 2.408 0 .513.056.98.168 1.4.112.411.27.765.476 1.064a2.2 2.2 0 0 0 .742.672 2 2 0 0 0 .98.238zm7.616-3.626l-.322 1.12h2.338l-.322-1.12-.434-1.498-.392-1.526h-.056l-.392 1.54-.42 1.484zM127.372 26l2.982-9.156h1.904L135.24 26h-1.708l-.714-2.478h-3.08L129.024 26h-1.652zm8.997 0v-9.156h2.45c1.4 0 2.492.378 3.276 1.134s1.176 1.89 1.176 3.402c0 .756-.103 1.423-.308 2.002-.196.579-.485 1.064-.868 1.456a3.59 3.59 0 0 1-1.372.868c-.532.196-1.139.294-1.82.294h-2.534zm1.624-1.316h.714c.933 0 1.647-.266 2.142-.798.504-.541.756-1.377.756-2.506 0-1.12-.252-1.937-.756-2.45s-1.218-.77-2.142-.77h-.714v6.524zM147.922 26v-9.156h5.53v1.372h-3.906v2.59h3.332v1.372h-3.332V26h-1.624zm10.556.168c-.598 0-1.144-.107-1.638-.322-.495-.224-.92-.541-1.274-.952-.355-.42-.63-.924-.826-1.512s-.294-1.255-.294-2.002c0-.737.098-1.395.294-1.974.196-.588.471-1.083.826-1.484a3.59 3.59 0 0 1 1.274-.924c.495-.215 1.04-.322 1.638-.322s1.143.107 1.638.322a3.59 3.59 0 0 1 1.274.924c.364.401.644.896.84 1.484.196.579.294 1.237.294 1.974 0 .747-.098 1.414-.294 2.002s-.476 1.092-.84 1.512a3.66 3.66 0 0 1-1.274.952c-.495.215-1.041.322-1.638.322zm0-1.414c.364 0 .69-.079.98-.238s.536-.383.742-.672c.205-.299.364-.653.476-1.064.112-.42.168-.887.168-1.4 0-1.027-.215-1.829-.644-2.408a2 2 0 0 0-1.722-.882c-.728 0-1.307.294-1.736.882-.42.579-.63 1.381-.63 2.408 0 .513.056.98.168 1.4.112.411.27.765.476 1.064a2.2 2.2 0 0 0 .742.672 2 2 0 0 0 .98.238zM164.355 26v-9.156h3.094a6.01 6.01 0 0 1 1.33.14c.41.093.766.247 1.064.462.299.205.532.481.7.826.178.345.266.775.266 1.288 0 .7-.168 1.265-.504 1.694-.326.429-.765.737-1.316.924L171.173 26h-1.82l-1.974-3.584h-1.4V26h-1.624zm1.624-4.872h1.302c.626 0 1.102-.131 1.428-.392.336-.261.504-.653.504-1.176 0-.532-.168-.901-.504-1.106-.326-.205-.802-.308-1.428-.308h-1.302v2.982zM75.156 55V36.744h4.116v14.784h7.224V55h-11.34zm14.492 0V36.744h4.116V55h-4.116zm8.422 0V36.744h4.228l4.76 9.072 1.792 4.032h.112l-.336-3.248-.168-3.416v-6.44h3.92V55h-4.228l-4.76-9.1-1.792-3.976h-.112l.308 3.248a29.88 29.88 0 0 1 .196 3.36V55h-3.92zm25.817.336c-2.371 0-4.181-.7-5.432-2.1s-1.876-3.631-1.876-6.692v-9.8h4.144v10.22c0 1.792.271 3.043.812 3.752s1.325 1.064 2.352 1.064 1.82-.355 2.38-1.064.84-1.96.84-3.752v-10.22h3.976v9.8c0 3.061-.616 5.292-1.848 6.692-1.213 1.4-2.996 2.1-5.348 2.1zm9.304-.336l5.068-9.38-4.76-8.876h4.592l1.596 3.444.616 1.372.7 1.568h.112l.588-1.568.588-1.372 1.456-3.444h4.396l-4.732 9.072 5.04 9.184h-4.592l-1.82-3.724-.672-1.428-.7-1.568h-.112l-.616 1.568-.616 1.428L137.615 55h-4.424zm-97.82-30.681c-.481.052-.315.497-.583.507s-.21-.567.583-.507zm1.45.073c.468-.121.471.354.726.267.248-.084-.004-.603-.726-.267zm16.13 31.082c-1.446.732-3.332 2.358-4.037 3.032-.518.5-2.691.747-3.898.122-1.43-.742-.672-1.899-2.88-1.954l-3.235-.023-2.857.093c-3.316.029-3.641 2.213-5.754 2.133-1.446-.054-3.271-1.203-6.404-1.863-2.202-.462-4.317-.571-4.769-1.553s.558-2.075.625-3.05c.082-1.271-.956-3-.188-3.669.634-.555 2.023-.148 2.918-.651.952-.532 1.334-.975 1.334-2.143.35 1.193-.016 2.181-.803 2.666-.468.285-1.338.436-2.054.362-.567-.054-.918.039-1.09.256-.22.283-.149.776.127 1.434s.612 1.075.568 1.88-.924 1.762-.784 2.439c.054.26.308.477.918.65 1.01.286 2.812.545 4.591.981 1.977.488 4.018 1.408 5.287 1.232 3.793-.532 1.63-4.628 1.016-5.603-3.202-5.075-5.319-8.398-7.014-7.079-.443.343-.459-.864-.44-1.328.073-1.668.915-2.252 1.415-3.55.936-2.432 1.666-5.217 3.114-6.657 1.078-1.389 2.759-3.675 3.082-4.882-.271-2.624-.354-5.385-.396-7.804-.041-2.573.364-4.83 3.249-6.409.704-.385 1.618-.526 2.587-.536 1.733-.019 3.643.469 4.864 1.38 1.946 1.453 3.169 4.544 3.026 6.768-.116 1.712.191 3.506.736 5.35.652 2.19 1.685 3.73 3.324 5.481 1.976 2.11 3.514 6.268 3.947 8.902.408 2.46-.123 3.98-.659 4.057-.798.119-1.296 2.672-3.797 2.553-1.596-.078-1.752-1.026-2.194-1.835-.711-1.293-1.434-.889-1.724.459-.15.689-.041 1.678.179 2.447.446 1.575.293 3.07.026 4.882-.511 3.477 2.413 4.135 4.386 2.483 1.946-1.632 2.363-1.892 4.825-2.738 3.714-1.281 2.466-2.413.469-3.089-1.79-.606-1.864-3.653-1.223-4.227.143 3.272 1.834 3.746 2.551 4.193 3.072 1.921-1.161 3.496-2.962 4.409zm-8.27-9.583c.338-.404.736-.45 1.261-.459.08-1.994 3.163-1.847 4.173-1.013 0-.462-.969-.876-1.357-1.072.672-2.252.357-3.156-.089-5.283-.338-1.623-1.806-3.807-2.957-4.49.29.256.842 1.001 1.424 2.093 1.003 1.881 1.994 4.661 1.334 6.996-.254.892-.834 1.004-1.233 1.049-1.768.186-.729-2.104-1.463-5.258-.817-3.506-1.656-3.769-1.866-4.044-1.013-4.561-2.14-4.106-2.459-5.828-.286-1.524 1.319-2.784-.863-3.21-.665-.132-1.617-.811-1.997-.86s-.56-2.515.819-2.615 1.643 1.569 1.372 2.227c-.392.651.029.895.711.683.558-.173.198-1.636.331-1.853-.36-2.095-1.229-2.397-2.133-2.573-3.434.265-1.892 4.096-2.24 3.727-.486-.52-1.949-.029-1.942-.362.031-1.953-.619-3.085-1.514-3.109-.997-.029-1.408 1.377-1.468 2.168-.057.76.449 2.345.818 2.223.242-.081.656-.57.213-.568-.229.003-.575-.538-.611-1.197s.204-1.318 1.052-1.283c.994.039.984 1.993.876 2.069a4.48 4.48 0 0 0-.77.725c-.316.533-.95.664-1.182.898-.442.445-.532.949-.2 1.142 1.137.657.767 1.388 2.357 1.456 1.044.041 1.83-.164 2.541-.383.554-.169 2.332-.55 2.707-1.208.163-.279.367-.289.503-.209.239.139.29.604-.325.77-.879.241-1.767.713-2.545 1.027s-1.025.439-1.758.575c-1.651.298-2.87-.6-1.762.478.367.359.721.584 1.67.545 2.08-.083 4.41-2.598 4.64-1.472.048.231-.659.545-1.21.821-1.95.966-3.323 2.874-4.571 2.214-1.117-.593-2.229-3.384-2.209-2.134.031 1.928-2.524 3.644-1.348 5.838-.761.209-2.497 3.897-2.747 5.818-.136 1.088.104 2.454-.155 3.218-.376 1.103-2.083-1.052-1.538-3.692.098-.465.015-.563-.108-.339-.694 1.235-.313 2.957.235 4.166.24.523.8.754 1.214 1.219.894 1.007 4.317 3.563 4.937 4.176.752.744.541 2.451-1.057 2.614.819 1.556 1.617 1.703 1.605 4.247.927-.501.554-1.597.166-2.319-.271-.494-.625-.718-.548-.834.058-.087.535-.5.822-.177.844.952 2.437 1.123 4.151.908s3.545-.821 4.393-2.194c.398-.645.684-.873.869-.76s.261.571.242 1.302c-.022.812-.359 1.655-.569 2.329-.237.763-.309 1.305.429 1.334l.717-4.205c.125-1.598-1.025-4.571.214-6.053zM34.198 23.209c-.057.315-.035.511.182.511.035 0 .073-.007.087-.087.104-.625-.217-1.081-.348-1.117-.305-.077-.267.362-.108.328.096-.02.226.141.188.366zm5.645-.859c-.313.029-.223.186-.067.231.203.061.395.41.439.789.003.035.261-.055.261-.138.019-.607-.497-.894-.633-.882z" fill="#fff"/></svg>
